dist/assets/img/main/attention.svg

<svg width="52" height="53" viewBox="0 0 52 53" fill="none" xmlns="http://www.w3.org/2000/svg">
<path d="M26 52.9527C40.336 52.9527 52 41.2932 52 26.9605C52 12.6278 40.336 0.968286 26 0.968287C11.664 0.968288 -3.52532e-06 12.6278 -2.27231e-06 26.9605C-1.01931e-06 41.2932 11.664 52.9527 26 52.9527ZM26 2.96769C39.233 2.96769 50 13.7315 50 26.9605C50 40.1895 39.233 50.9533 26 50.9533C12.767 50.9533 2 40.1896 2 26.9605C2 13.7315 12.767 2.96769 26 2.96769Z" fill="black"/>
<path d="M26 42.9557C26.552 42.9557 27 42.5089 27 41.956L27 19.9626C27 19.4098 26.552 18.9629 26 18.9629C25.448 18.9629 25 19.4098 25 19.9626L25 41.956C25 42.5089 25.448 42.9557 26 42.9557Z" fill="black"/>
<path d="M26 15.9638C26.552 15.9638 27 15.5169 27 14.9641L27 12.9647C27 12.4119 26.552 11.965 26 11.965C25.448 11.965 25 12.4119 25 12.9647L25 14.9641C25 15.5169 25.448 15.9638 26 15.9638Z" fill="black"/>
</svg>

<svg width="52" height="53" fill="none" xmlns="http://www.w3.org/2000/svg"><path d="M26 52.953c14.336 0 26-11.66 26-25.993C52 12.628 40.336.968 26 .968S0 12.628 0 26.96c0 14.333 11.664 25.993 26 25.993zm0-49.985c13.233 0 24 10.764 24 23.992 0 13.23-10.767 23.993-24 23.993S2 40.19 2 26.96C2 13.732 12.767 2.968 26 2.968z" fill="#000"/><path d="M26 42.956a1 1 0 001-1V19.963a1 1 0 10-2 0v21.993a1 1 0 001 1zm0-26.992a1 1 0 001-1v-2a1 1 0 10-2 0v2a1 1 0 001 1z" fill="#000"/></svg>
